images/68079.svg

<?xml version="1.0" encoding="UTF-8"?>
<svg xmlns="http://www.w3.org/2000/svg" xmlns:xlink="http://www.w3.org/1999/xlink" width="300pt" height="300pt" viewBox="0 0 300 300" version="1.1">
<defs>
<g>
<symbol overflow="visible" id="glyph0-0">
<path style="stroke:none;" d="M 0.796875 2.828125 L 0.796875 -11.28125 L 8.796875 -11.28125 L 8.796875 2.828125 Z M 1.703125 1.9375 L 7.90625 1.9375 L 7.90625 -10.390625 L 1.703125 -10.390625 Z M 1.703125 1.9375 "/>
</symbol>
<symbol overflow="visible" id="glyph0-1">
<path style="stroke:none;" d="M 6.3125 -10.59375 C 5.164062 -10.59375 4.253906 -10.164062 3.578125 -9.3125 C 2.898438 -8.457031 2.5625 -7.296875 2.5625 -5.828125 C 2.5625 -4.359375 2.898438 -3.195312 3.578125 -2.34375 C 4.253906 -1.488281 5.164062 -1.0625 6.3125 -1.0625 C 7.457031 -1.0625 8.363281 -1.488281 9.03125 -2.34375 C 9.695312 -3.195312 10.03125 -4.359375 10.03125 -5.828125 C 10.03125 -7.296875 9.695312 -8.457031 9.03125 -9.3125 C 8.363281 -10.164062 7.457031 -10.59375 6.3125 -10.59375 Z M 6.3125 -11.875 C 7.945312 -11.875 9.253906 -11.328125 10.234375 -10.234375 C 11.210938 -9.140625 11.703125 -7.671875 11.703125 -5.828125 C 11.703125 -3.984375 11.210938 -2.507812 10.234375 -1.40625 C 9.253906 -0.3125 7.945312 0.234375 6.3125 0.234375 C 4.664062 0.234375 3.351562 -0.3125 2.375 -1.40625 C 1.394531 -2.507812 0.90625 -3.984375 0.90625 -5.828125 C 0.90625 -7.671875 1.394531 -9.140625 2.375 -10.234375 C 3.351562 -11.328125 4.664062 -11.875 6.3125 -11.875 Z M 6.3125 -11.875 "/>
</symbol>
</g>
</defs>
<g id="surface52217">
<rect x="0" y="0" width="300" height="300" style="fill:rgb(100%,100%,100%);fill-opacity:1;stroke:none;"/>
<path style="fill:none;stroke-width:1.2;stroke-linecap:butt;stroke-linejoin:miter;stroke:rgb(0%,0%,0%);stroke-opacity:1;stroke-miterlimit:10;" d="M 60.964844 228.792969 L 79.785156 225.394531 "/>
<path style="fill:none;stroke-width:1.2;stroke-linecap:butt;stroke-linejoin:miter;stroke:rgb(100%,0%,0%);stroke-opacity:1;stroke-miterlimit:10;" d="M 79.785156 225.394531 L 98.605469 221.996094 "/>
<path style="fill:none;stroke-width:1.2;stroke-linecap:butt;stroke-linejoin:miter;stroke:rgb(100%,0%,0%);stroke-opacity:1;stroke-miterlimit:10;" d="M 98.605469 221.996094 L 105.070312 203.996094 "/>
<path style="fill:none;stroke-width:1.2;stroke-linecap:butt;stroke-linejoin:miter;stroke:rgb(0%,0%,0%);stroke-opacity:1;stroke-miterlimit:10;" d="M 105.070312 203.996094 L 111.535156 185.996094 "/>
<path style=" stroke:none;fill-rule:nonzero;fill:rgb(100%,100%,100%);fill-opacity:1;" d="M 92.605469 212.496094 L 105.605469 212.496094 L 105.605469 231.496094 L 92.605469 231.496094 Z M 92.605469 212.496094 "/>
<g style="fill:rgb(100%,0%,0%);fill-opacity:1;">
  <use xlink:href="#glyph0-1" x="92.605469" y="227.347656"/>
</g>
<path style="fill:none;stroke-width:1.2;stroke-linecap:butt;stroke-linejoin:miter;stroke:rgb(0%,0%,0%);stroke-opacity:1;stroke-miterlimit:10;" d="M 111.535156 185.996094 L 86.828125 156.800781 "/>
<path style="fill:none;stroke-width:1.2;stroke-linecap:butt;stroke-linejoin:miter;stroke:rgb(0%,0%,0%);stroke-opacity:1;stroke-miterlimit:10;" d="M 115.9375 177.265625 L 96.167969 153.90625 "/>
<path style="fill:none;stroke-width:1.2;stroke-linecap:butt;stroke-linejoin:miter;stroke:rgb(0%,0%,0%);stroke-opacity:1;stroke-miterlimit:10;" d="M 149.179688 179.199219 L 111.535156 185.996094 "/>
<path style="fill:none;stroke-width:1.2;stroke-linecap:butt;stroke-linejoin:miter;stroke:rgb(0%,0%,0%);stroke-opacity:1;stroke-miterlimit:10;" d="M 86.828125 156.800781 L 48.597656 155.625 "/>
<path style="fill:none;stroke-width:1.2;stroke-linecap:butt;stroke-linejoin:miter;stroke:rgb(0%,0%,0%);stroke-opacity:1;stroke-miterlimit:10;" d="M 99.761719 120.800781 L 86.828125 156.800781 "/>
<path style="fill:none;stroke-width:1.2;stroke-linecap:butt;stroke-linejoin:miter;stroke:rgb(0%,0%,0%);stroke-opacity:1;stroke-miterlimit:10;" d="M 48.597656 155.625 L 37.898438 118.898438 "/>
<path style="fill:none;stroke-width:1.2;stroke-linecap:butt;stroke-linejoin:miter;stroke:rgb(0%,0%,0%);stroke-opacity:1;stroke-miterlimit:10;" d="M 56.167969 149.433594 L 47.609375 120.054688 "/>
<path style="fill:none;stroke-width:1.2;stroke-linecap:butt;stroke-linejoin:miter;stroke:rgb(0%,0%,0%);stroke-opacity:1;stroke-miterlimit:10;" d="M 37.898438 118.898438 L 53.710938 108.140625 "/>
<path style="fill:none;stroke-width:1.2;stroke-linecap:butt;stroke-linejoin:miter;stroke:rgb(100%,0%,0%);stroke-opacity:1;stroke-miterlimit:10;" d="M 53.710938 108.140625 L 69.519531 97.378906 "/>
<path style="fill:none;stroke-width:1.2;stroke-linecap:butt;stroke-linejoin:miter;stroke:rgb(100%,0%,0%);stroke-opacity:1;stroke-miterlimit:10;" d="M 69.519531 97.378906 L 84.640625 109.089844 "/>
<path style="fill:none;stroke-width:1.2;stroke-linecap:butt;stroke-linejoin:miter;stroke:rgb(0%,0%,0%);stroke-opacity:1;stroke-miterlimit:10;" d="M 84.640625 109.089844 L 99.761719 120.800781 "/>
<path style=" stroke:none;fill-rule:nonzero;fill:rgb(100%,100%,100%);fill-opacity:1;" d="M 63.519531 87.878906 L 76.519531 87.878906 L 76.519531 106.878906 L 63.519531 106.878906 Z M 63.519531 87.878906 "/>
<g style="fill:rgb(100%,0%,0%);fill-opacity:1;">
  <use xlink:href="#glyph0-1" x="63.519531" y="102.730469"/>
</g>
<path style="fill:none;stroke-width:1.2;stroke-linecap:butt;stroke-linejoin:miter;stroke:rgb(0%,0%,0%);stroke-opacity:1;stroke-miterlimit:10;" d="M 99.761719 120.800781 L 137.402344 114.003906 "/>
<path style="fill:none;stroke-width:1.2;stroke-linecap:butt;stroke-linejoin:miter;stroke:rgb(0%,0%,0%);stroke-opacity:1;stroke-miterlimit:10;" d="M 105.125 128.976562 L 135.238281 123.539062 "/>
<path style="fill:none;stroke-width:1.2;stroke-linecap:butt;stroke-linejoin:miter;stroke:rgb(0%,0%,0%);stroke-opacity:1;stroke-miterlimit:10;" d="M 137.402344 114.003906 L 162.109375 143.199219 "/>
<path style="fill:none;stroke-width:1.2;stroke-linecap:butt;stroke-linejoin:miter;stroke:rgb(0%,0%,0%);stroke-opacity:1;stroke-miterlimit:10;" d="M 137.402344 114.003906 L 143.867188 96.003906 "/>
<path style="fill:none;stroke-width:1.2;stroke-linecap:butt;stroke-linejoin:miter;stroke:rgb(100%,0%,0%);stroke-opacity:1;stroke-miterlimit:10;" d="M 143.867188 96.003906 L 150.332031 78.003906 "/>
<path style="fill:none;stroke-width:1.2;stroke-linecap:butt;stroke-linejoin:miter;stroke:rgb(0%,0%,0%);stroke-opacity:1;stroke-miterlimit:10;" d="M 162.109375 143.199219 L 149.179688 179.199219 "/>
<path style="fill:none;stroke-width:1.2;stroke-linecap:butt;stroke-linejoin:miter;stroke:rgb(0%,0%,0%);stroke-opacity:1;stroke-miterlimit:10;" d="M 169.285156 149.84375 L 158.941406 178.640625 "/>
<path style="fill:none;stroke-width:1.2;stroke-linecap:butt;stroke-linejoin:miter;stroke:rgb(100%,0%,0%);stroke-opacity:1;stroke-miterlimit:10;" d="M 199.75 136.402344 L 180.929688 139.800781 "/>
<path style="fill:none;stroke-width:1.2;stroke-linecap:butt;stroke-linejoin:miter;stroke:rgb(0%,0%,0%);stroke-opacity:1;stroke-miterlimit:10;" d="M 180.929688 139.800781 L 162.109375 143.199219 "/>
<path style="fill:none;stroke-width:1.2;stroke-linecap:butt;stroke-linejoin:miter;stroke:rgb(0%,0%,0%);stroke-opacity:1;stroke-miterlimit:10;" d="M 149.179688 179.199219 L 173.886719 208.398438 "/>
<path style="fill:none;stroke-width:1.2;stroke-linecap:butt;stroke-linejoin:miter;stroke:rgb(0%,0%,0%);stroke-opacity:1;stroke-miterlimit:10;" d="M 173.886719 208.398438 L 211.527344 201.597656 "/>
<path style="fill:none;stroke-width:1.2;stroke-linecap:butt;stroke-linejoin:miter;stroke:rgb(0%,0%,0%);stroke-opacity:1;stroke-miterlimit:10;" d="M 176.050781 198.859375 L 206.164062 193.421875 "/>
<path style="fill:none;stroke-width:1.2;stroke-linecap:butt;stroke-linejoin:miter;stroke:rgb(0%,0%,0%);stroke-opacity:1;stroke-miterlimit:10;" d="M 211.527344 201.597656 L 224.460938 165.601562 "/>
<path style="fill:none;stroke-width:1.2;stroke-linecap:butt;stroke-linejoin:miter;stroke:rgb(0%,0%,0%);stroke-opacity:1;stroke-miterlimit:10;" d="M 225.257812 170.027344 L 244.078125 166.628906 "/>
<path style="fill:none;stroke-width:1.2;stroke-linecap:butt;stroke-linejoin:miter;stroke:rgb(100%,0%,0%);stroke-opacity:1;stroke-miterlimit:10;" d="M 244.078125 166.628906 L 262.898438 163.230469 "/>
<path style="fill:none;stroke-width:1.2;stroke-linecap:butt;stroke-linejoin:miter;stroke:rgb(0%,0%,0%);stroke-opacity:1;stroke-miterlimit:10;" d="M 223.660156 161.171875 L 242.480469 157.773438 "/>
<path style="fill:none;stroke-width:1.2;stroke-linecap:butt;stroke-linejoin:miter;stroke:rgb(100%,0%,0%);stroke-opacity:1;stroke-miterlimit:10;" d="M 242.480469 157.773438 L 261.300781 154.371094 "/>
<path style="fill:none;stroke-width:1.2;stroke-linecap:butt;stroke-linejoin:miter;stroke:rgb(0%,0%,0%);stroke-opacity:1;stroke-miterlimit:10;" d="M 224.460938 165.601562 L 212.105469 151 "/>
<path style="fill:none;stroke-width:1.2;stroke-linecap:butt;stroke-linejoin:miter;stroke:rgb(100%,0%,0%);stroke-opacity:1;stroke-miterlimit:10;" d="M 212.105469 151 L 199.75 136.402344 "/>
<path style=" stroke:none;fill-rule:nonzero;fill:rgb(100%,100%,100%);fill-opacity:1;" d="M 256.101562 149.300781 L 269.101562 149.300781 L 269.101562 168.300781 L 256.101562 168.300781 Z M 256.101562 149.300781 "/>
<g style="fill:rgb(100%,0%,0%);fill-opacity:1;">
  <use xlink:href="#glyph0-1" x="256.101562" y="164.152344"/>
</g>
<path style=" stroke:none;fill-rule:nonzero;fill:rgb(100%,100%,100%);fill-opacity:1;" d="M 193.75 126.902344 L 206.75 126.902344 L 206.75 145.902344 L 193.75 145.902344 Z M 193.75 126.902344 "/>
<g style="fill:rgb(100%,0%,0%);fill-opacity:1;">
  <use xlink:href="#glyph0-1" x="193.75" y="141.753906"/>
</g>
<path style="fill:none;stroke-width:1.2;stroke-linecap:butt;stroke-linejoin:miter;stroke:rgb(100%,0%,0%);stroke-opacity:1;stroke-miterlimit:10;" d="M 150.332031 78.003906 L 169.152344 74.605469 "/>
<path style="fill:none;stroke-width:1.2;stroke-linecap:butt;stroke-linejoin:miter;stroke:rgb(0%,0%,0%);stroke-opacity:1;stroke-miterlimit:10;" d="M 169.152344 74.605469 L 187.972656 71.207031 "/>
<path style=" stroke:none;fill-rule:nonzero;fill:rgb(100%,100%,100%);fill-opacity:1;" d="M 144.332031 68.503906 L 157.332031 68.503906 L 157.332031 87.503906 L 144.332031 87.503906 Z M 144.332031 68.503906 "/>
<g style="fill:rgb(100%,0%,0%);fill-opacity:1;">
  <use xlink:href="#glyph0-1" x="144.332031" y="83.355469"/>
</g>
</g>
</svg>

<svg xmlns="http://www.w3.org/2000/svg" xmlns:xlink="http://www.w3.org/1999/xlink" width="300pt" height="300pt" viewBox="0 0 300 300"><defs><symbol overflow="visible"><path d="M.797 2.828v-14.11h8V2.83zm.906-.89h6.203v-12.33H1.703zm0 0"/></symbol><symbol overflow="visible" id="a"><path d="M6.313-10.594c-1.15 0-2.06.43-2.735 1.28-.68.857-1.015 2.017-1.015 3.486 0 1.47.335 2.633 1.015 3.484.676.856 1.586 1.28 2.735 1.28 1.144.002 2.05-.424 2.718-1.28.665-.85 1-2.015 1-3.484 0-1.47-.335-2.63-1-3.484-.667-.852-1.573-1.282-2.717-1.282zm0-1.28c1.632 0 2.94.546 3.92 1.64.978 1.093 1.47 2.562 1.47 4.406 0 1.844-.492 3.32-1.47 4.422-.98 1.093-2.288 1.64-3.92 1.64-1.65 0-2.96-.546-3.938-1.64-.98-1.102-1.47-2.578-1.47-4.422 0-1.844.49-3.313 1.47-4.406.977-1.094 2.29-1.64 3.938-1.64zm0 0"/></symbol></defs><g><path fill="#fff" d="M0 0h300v300H0z"/><path d="M60.965 228.793l18.82-3.398" stroke-width="1.2" stroke="#000" stroke-miterlimit="10" fill="none"/><path d="M79.785 225.395l18.82-3.4M98.605 221.996l6.465-18" stroke-width="1.2" stroke="#f00" stroke-miterlimit="10" fill="none"/><path d="M105.07 203.996l6.465-18" stroke-width="1.2" stroke="#000" stroke-miterlimit="10" fill="none"/><path d="M92.605 212.496h13v19h-13zm0 0" fill="#fff"/><use xlink:href="#a" x="92.605" y="227.348" fill="#f00"/><path d="M111.535 185.996L86.828 156.8M115.938 177.266l-19.77-23.36M149.18 179.2l-37.645 6.796M86.828 156.8l-38.23-1.175M99.762 120.8l-12.934 36M48.598 155.625l-10.7-36.727M56.168 149.434l-8.56-29.38M37.898 118.898L53.71 108.14" stroke-width="1.2" stroke="#000" stroke-miterlimit="10" fill="none"/><path d="M53.71 108.14l15.81-10.76M69.52 97.38l15.12 11.71" stroke-width="1.2" stroke="#f00" stroke-miterlimit="10" fill="none"/><path d="M84.64 109.09l15.122 11.71" stroke-width="1.2" stroke="#000" stroke-miterlimit="10" fill="none"/><path d="M63.52 87.88h13v19h-13zm0 0" fill="#fff"/><use xlink:href="#a" x="63.52" y="102.73" fill="#f00"/><path d="M99.762 120.8l37.64-6.796M105.125 128.977l30.113-5.438M137.402 114.004L162.11 143.2M137.402 114.004l6.465-18" stroke-width="1.2" stroke="#000" stroke-miterlimit="10" fill="none"/><path d="M143.867 96.004l6.465-18" stroke-width="1.2" stroke="#f00" stroke-miterlimit="10" fill="none"/><path d="M162.11 143.2l-12.93 36M169.285 149.844L158.94 178.64" stroke-width="1.2" stroke="#000" stroke-miterlimit="10" fill="none"/><path d="M199.75 136.402l-18.82 3.4" stroke-width="1.2" stroke="#f00" stroke-miterlimit="10" fill="none"/><path d="M180.93 139.8l-18.82 3.4M149.18 179.2l24.707 29.198M173.887 208.398l37.64-6.8M176.05 198.86l30.114-5.438M211.527 201.598l12.934-35.996M225.258 170.027l18.82-3.398" stroke-width="1.2" stroke="#000" stroke-miterlimit="10" fill="none"/><path d="M244.078 166.63l18.82-3.4" stroke-width="1.2" stroke="#f00" stroke-miterlimit="10" fill="none"/><path d="M223.66 161.172l18.82-3.4" stroke-width="1.2" stroke="#000" stroke-miterlimit="10" fill="none"/><path d="M242.48 157.773l18.82-3.402" stroke-width="1.2" stroke="#f00" stroke-miterlimit="10" fill="none"/><path d="M224.46 165.602L212.106 151" stroke-width="1.2" stroke="#000" stroke-miterlimit="10" fill="none"/><path d="M212.105 151l-12.355-14.598" stroke-width="1.2" stroke="#f00" stroke-miterlimit="10" fill="none"/><path d="M256.102 149.3h13v19h-13zm0 0" fill="#fff"/><use xlink:href="#a" x="256.102" y="164.152" fill="#f00"/><path d="M193.75 126.902h13v19h-13zm0 0" fill="#fff"/><use xlink:href="#a" x="193.75" y="141.754" fill="#f00"/><path d="M150.332 78.004l18.82-3.4" stroke-width="1.2" stroke="#f00" stroke-miterlimit="10" fill="none"/><path d="M169.152 74.605l18.82-3.398" stroke-width="1.2" stroke="#000" stroke-miterlimit="10" fill="none"/><path d="M144.332 68.504h13v19h-13zm0 0" fill="#fff"/><use xlink:href="#a" x="144.332" y="83.355" fill="#f00"/></g></svg>
